usr/share/icons/biglinux-icons-material/scalable/apps/cs-firewall.svg

<svg xmlns="http://www.w3.org/2000/svg" xml:space="preserve" width="24" height="24" viewBox="0 0 6.35 6.35"><defs><radialGradient id="a" cx="0" cy="0" r="1" fx="0" fy="0" gradientTransform="matrix(0 16.5 -16.5 0 9 .75)" gradientUnits="userSpaceOnUse" spreadMethod="pad"><stop offset="0" style="stop-opacity:1;stop-color:#01beff"/><stop offset="1" style="stop-opacity:1;stop-color:#436eff"/></radialGradient><clipPath id="b" clipPathUnits="userSpaceOnUse"><path d="M0 0h19v19H0Z"/></clipPath></defs><path d="M7.453.801a.951.951 0 0 1-.258.035 10.27 10.27 0 0 0-1.648.266c-2.328.554-3.797 1.988-4.406 4.3a13.877 13.877 0 0 0-.387 3.59c-.024 1.141.09 2.27.336 3.383.578 2.477 2.113 3.992 4.594 4.543 1.351.277 2.714.383 4.089.309a11.693 11.693 0 0 0 3.575-.618c1.429-.523 2.464-1.476 3.101-2.859a8.976 8.976 0 0 0 .672-2.488c.137-1.231.164-2.461.086-3.696-.059-.98-.25-1.937-.566-2.867-.563-1.543-1.602-2.629-3.121-3.254a10.26 10.26 0 0 0-2.836-.636A23.86 23.86 0 0 0 7.453.801Z" style="fill:url(#a);fill-rule:evenodd;stroke:none" transform="scale(.35277)"/><path d="M8.984 2.812a17.772 17.772 0 0 0-5.695.942v3.75c.027 1.769.141 3.234.961 4.316.988 1.301 2.633 2.446 4.75 3.368 2.113-.922 3.77-2.067 4.754-3.368.82-1.082.93-2.547.957-4.316V3.777a17.776 17.776 0 0 0-5.727-.965Z" style="fill:#f2f2f2;fill-opacity:1;fill-rule:nonzero;stroke:none" transform="scale(.35277)"/><g clip-path="url(#b)" opacity=".1" transform="scale(.35277)"><path d="M9 2.812v12.376c2.113-.922 3.766-2.067 4.754-3.368.82-1.082.93-2.547.957-4.316V3.777A17.68 17.68 0 0 0 9 2.812Z" style="fill:#000;fill-opacity:1;fill-rule:nonzero;stroke:none"/></g><path d="m6.551 7.734 2.691 2.696-.508.504-2.691-2.692Z" style="fill:#5dbe7b;fill-opacity:1;fill-rule:nonzero;stroke:none" transform="scale(.35277)"/><path d="m8.227 10.434 4.039-4.039.504.503-4.036 4.04z" style="fill:#5dbe7b;fill-opacity:1;fill-rule:nonzero;stroke:none" transform="scale(.35277)"/></svg>

<?xml version="1.0" encoding="UTF-8" standalone="no"?>
<svg
   width="24"
   height="24"
   viewBox="0 0 6.349875 6.349875"
   version="1.1"
   id="svg17920"
   sodipodi:docname="cs-firewall.svg"
   inkscape:version="1.2.2 (b0a8486541, 2022-12-01)"
   xml:space="preserve"
   inkscape:export-filename="cs-firewall.pdf"
   inkscape:export-xdpi="800"
   inkscape:export-ydpi="800"
   xmlns:inkscape="http://www.inkscape.org/namespaces/inkscape"
   xmlns:sodipodi="http://sodipodi.sourceforge.net/DTD/sodipodi-0.dtd"
   xmlns="http://www.w3.org/2000/svg"
   xmlns:svg="http://www.w3.org/2000/svg"><defs
     id="defs17924"><linearGradient
       id="paint0_linear_18_187"
       x1="12"
       y1="1"
       x2="12"
       y2="23"
       gradientUnits="userSpaceOnUse"
       gradientTransform="matrix(0.26457812,0,0,0.26457812,-4.0758199e-6,-8.4144564e-6)"><stop
         stop-color="#33BEF0"
         id="stop43245"
         offset="0"
         style="stop-color:#26b8ef;stop-opacity:1;" /><stop
         offset="1"
         stop-color="#0A85D9"
         id="stop43247"
         style="stop-color:#0093cb;stop-opacity:1;" /></linearGradient><linearGradient
       x1="12"
       y1="1"
       x2="12"
       y2="23"
       gradientUnits="userSpaceOnUse"
       gradientTransform="matrix(0.75,0,0,0.75,-1.15537e-5,-2.38525e-5)"
       spreadMethod="pad"
       id="linearGradient46566"><stop
         style="stop-opacity:1;stop-color:#26b8ef"
         offset="0"
         id="stop46562" /><stop
         style="stop-opacity:1;stop-color:#0093cb"
         offset="1"
         id="stop46564" /></linearGradient><radialGradient
       id="paint0_radial_2_129"
       cx="0"
       cy="0"
       r="1"
       gradientUnits="userSpaceOnUse"
       gradientTransform="matrix(0,5.8207186,-5.8207186,0,3.1749338,0.26459255)"><stop
         stop-color="#FAFAFA"
         id="stop8838"
         offset="0"
         style="stop-color:#01beff;stop-opacity:1;" /><stop
         offset="1"
         stop-color="#B0B0B0"
         id="stop8840"
         style="stop-color:#436eff;stop-opacity:1;" /></radialGradient><radialGradient
       fx="0"
       fy="0"
       cx="0"
       cy="0"
       r="1"
       gradientUnits="userSpaceOnUse"
       gradientTransform="matrix(0,16.5,-16.5,0,8.99999,0.750041)"
       spreadMethod="pad"
       id="radialGradient23359"><stop
         style="stop-opacity:1;stop-color:#01beff"
         offset="0"
         id="stop23355" /><stop
         style="stop-opacity:1;stop-color:#436eff"
         offset="1"
         id="stop23357" /></radialGradient><clipPath
       clipPathUnits="userSpaceOnUse"
       id="clipPath23371"><path
         d="M 0,0 H 19 V 19 H 0 Z"
         id="path23369" /></clipPath><radialGradient
       fx="0"
       fy="0"
       cx="0"
       cy="0"
       r="1"
       gradientUnits="userSpaceOnUse"
       gradientTransform="matrix(0,16.5,-16.5,0,8.99999,0.750041)"
       spreadMethod="pad"
       id="radialGradient23359-6"><stop
         style="stop-opacity:1;stop-color:#01beff"
         offset="0"
         id="stop23355-0" /><stop
         style="stop-opacity:1;stop-color:#436eff"
         offset="1"
         id="stop23357-6" /></radialGradient><clipPath
       clipPathUnits="userSpaceOnUse"
       id="clipPath23371-2"><path
         d="M 0,0 H 19 V 19 H 0 Z"
         id="path23369-6" /></clipPath></defs><sodipodi:namedview
     id="namedview17922"
     pagecolor="#ffffff"
     bordercolor="#000000"
     borderopacity="0.25"
     inkscape:showpageshadow="2"
     inkscape:pageopacity="0.0"
     inkscape:pagecheckerboard="0"
     inkscape:deskcolor="#d1d1d1"
     showgrid="false"
     inkscape:zoom="9.656427"
     inkscape:cx="19.727794"
     inkscape:cy="5.6439095"
     inkscape:window-width="2560"
     inkscape:window-height="1000"
     inkscape:window-x="1680"
     inkscape:window-y="0"
     inkscape:window-maximized="1"
     inkscape:current-layer="svg17920" /><g
     id="g23343"
     transform="matrix(0.35277082,0,0,0.35277082,-1.1961624e-4,-9.2306512e-6)"><g
       id="g23345"><g
         id="g23347"><g
           id="g23353"><path
             d="M 7.453,0.801 C 7.371,0.824 7.285,0.836 7.195,0.836 6.641,0.879 6.09,0.969 5.547,1.102 3.219,1.656 1.75,3.09 1.141,5.402 0.855,6.582 0.727,7.781 0.754,8.992 c -0.024,1.141 0.09,2.27 0.336,3.383 0.578,2.477 2.113,3.992 4.594,4.543 1.351,0.277 2.714,0.383 4.089,0.309 1.227,-0.02 2.418,-0.227 3.575,-0.618 1.429,-0.523 2.464,-1.476 3.101,-2.859 0.344,-0.797 0.567,-1.625 0.672,-2.488 0.137,-1.231 0.164,-2.461 0.086,-3.696 C 17.148,6.586 16.957,5.629 16.641,4.699 16.078,3.156 15.039,2.07 13.52,1.445 12.605,1.098 11.66,0.887 10.684,0.809 9.609,0.734 8.531,0.73 7.453,0.801 Z"
             style="fill:url(#radialGradient23359-6);fill-rule:evenodd;stroke:none"
             id="path23361" /></g></g></g><path
       d="M 8.984,2.812 C 7.039,2.816 5.109,3.133 3.289,3.754 v 3.75 c 0.027,1.769 0.141,3.234 0.961,4.316 0.988,1.301 2.633,2.446 4.75,3.368 2.113,-0.922 3.77,-2.067 4.754,-3.368 0.82,-1.082 0.93,-2.547 0.957,-4.316 V 3.777 C 12.883,3.145 10.941,2.82 8.984,2.812 Z"
       style="fill:#f2f2f2;fill-opacity:1;fill-rule:nonzero;stroke:none"
       id="path23363" /><g
       id="g23365"><g
         id="g23367" /><g
         id="g23379"><g
           clip-path="url(#clipPath23371-2)"
           opacity="0.1"
           id="g23377"><g
             id="g23375"><path
               d="m 9,2.812 v 12.376 c 2.113,-0.922 3.766,-2.067 4.754,-3.368 0.82,-1.082 0.93,-2.547 0.957,-4.316 V 3.777 C 12.887,3.145 10.953,2.82 9,2.812 Z"
               style="fill:#000000;fill-opacity:1;fill-rule:nonzero;stroke:none"
               id="path23373" /></g></g></g></g><path
       d="M 6.551,7.734 9.242,10.43 8.734,10.934 6.043,8.242 Z"
       style="fill:#5dbe7b;fill-opacity:1;fill-rule:nonzero;stroke:none"
       id="path23381" /><path
       d="m 8.227,10.434 4.039,-4.039 0.504,0.503 -4.036,4.04 z"
       style="fill:#5dbe7b;fill-opacity:1;fill-rule:nonzero;stroke:none"
       id="path23383" /></g></svg>
